X:97
T:St. Catherine's Park
R:air
C: 2000, 2010 L.E. McCullough  
M:4/4 
L:1/8
Q:1/4=90
K:G
z6 D G3 G/F/||G6-GA|B/d/-d4 BAG/E/-|E4-EG<AG/E/|
D4-D F2 G/A/|B/d/-d4-dBA|A8-|Az2 DG3 G/F/|
G6-GA|B/d/-d4 BAG/E/-|E4-EG<AG/E/|
D4-DGB/d/B/A/-|A3D G3 G/F/|G8-|G4z2 dg/f/||
e4-ede/g/a-|a4 g2 e/d/-|d6 dg/f/|
e4-ede/g/e|d4-dB/A/ A2-|A2z D G3G/F/|
G6-GA|B/d/-d4 BAG/E/-|E4-EG<AG/E/|
D4-DGB/d/B/A/-|A3D G3 G/F/|G8-|G8|]

